!!!COM: Haydn, Franz Joseph
!!!OTL: String Quartet in E-flat Major
!!!CDT: 1732/3/31/-1809/5/31/
!!!CNT: Oesterreich
!!!OPS: Opus 20
!!!ONM: No. 1
!!!OMD: Affettuoso e sostenuto
!!!OMV: 3
!!!SCT: H III:31
!!!SCA: Thematisch-bibliographisches Werkevererzeichnis (A. van Hoboken)
!!!YOR: Altmann Edition
!!!ENC: Nestor Napoles
!!!ENC: Harmonic analysis by Nestor Napoles
!!!YEC: Copyright (c) 2017 Universitat Pompeu Fabra
!!!YEM: Rights to all derivative editions reserved.
!!!YEM: Refer to licensing agreement for further details.
!!!YEN: Barcelona, Spain
**harm	**commentary	**kern	**kern	**kern	**kern
*k[f#c#]	*k[f#c#]	*k[f#c#]	*k[f#c#]	*k[f#c#]	*k[f#c#]
*	*	*clefF4	*clefC3	*clefG2	*clefG2
*M3/8	*M3/8	*M3/8	*M3/8	*M3/8	*M3/8
*D:	*D:	*D:	*D:	*D:	*D:
*staff1/2/3/4	*	*staff1	*staff2	*staff3	*staff4
I	.	[4.D/	8d/L	8f#/L	[4.dd/
.	.	.	8e/	8g/	.
.	.	.	8f#/J	8a/J	.
=2	=2	=2	=2	=2	=2
IVc	.	4.D/_	8g\L	8b/L	4dd/]
.	.	.	8f#\	8a/	.
.	.	.	8e\J	8cc#/J	8gg\
=3	=3	=3	=3	=3	=3
.	.	8D/L]	4d/	[4.dd/	8ff#\L
.	.	8BB/	.	.	8gg\
.	.	8GG/J	[8d/	.	8bb\J
=4	=4	=4	=4	=4	=4
Ib	.	8FF#/L	8d/L]	8dd/L]	8aa\L
(V7b)	.	8C#/	8A/	8ee/	8gg\
(I)	.	8D/J	8A/J	8a/J	8ff#\J
=5	=5	=5	=5	=5	=5
iib	.	8GG/L	16G/LL	8b/L	8ee/L
.	.	.	16g/JJ	.	.
Ic	.	8AA/	8f#/L	8a/	8dd/
V7	.	8AA/J	8e/J	8g/J	8cc#/J
=6	=6	=6	=6	=6	=6
I	.	[4.D/	8d/L	8f#/L	[4.dd/
IVc	.	.	8g/	8b/	.
?	Not sure whether harmony changes during this section	.	8e/J	8a/J	.
=7	=7	=7	=7	=7	=7
.	.	4.D/_	8d/L	8g/L	4dd/]
.	.	.	8c#/	8f#/	.
.	.	.	8d/J	8e/J	8g/
=8	=8	=8	=8	=8	=8
I	.	8D/L]	[4.d/	8f#/L	[4.dd/
.	.	8E/	.	8g/	.
.	.	8F#/J	.	8a/J	.
=9	=9	=9	=9	=9	=9
IV	.	8G/L	4d/]	8b/L	4dd/]
Ib	.	8F#/	.	8a/	.
V7c	.	8E/J	[8a\	8cc#/J	8gg\
=10	=10	=10	=10	=10	=10
I	.	8D/L	8a\L]	[4.dd/	8ff#\L
IVb	.	8B/	8g\	.	8gg\
.	.	8G/J	8g\J	.	8bb\J
=11	=11	=11	=11	=11	=11
Ib	.	8F#\L	4.a\	8dd/L]	8aa\L
V7b	.	8c#\	.	8ee/	8gg\
I	.	8d\J	.	8a/J	8ff#\J
=12	=12	=12	=12	=12	=12
iib	.	8G/L	4g\	8b/L	8ee\L
.	.	8E/	.	8g/	8bb\
viio/V	.	8G#/J	8g#\	8b/J	8dd\J
=13	=13	=13	=13	=13	=13
V	.	8A\L	[4.a\	8e/L	8cc#\L
.	.	8A\	.	8cc#/	8aa\
.	.	8B\J	.	8dd/J	8gg#\J
=14	=14	=14	=14	=14	=14
V7b	.	8c#\L	4a\]	8ee/L	8gg\L
Ic	.	8d\	.	8a/	8ff#\
viiob/vi	.	8c#\J	8e/	8cc#/J	8aa#\J
=15	=15	=15	=15	=15	=15
vi	.	8B\L	8d/L	8dd/L	8bb\L
V	.	8A\	8c#/	8ee/	8ccc#\
V7b/V	.	8G#\J	8B/J	[8ee/J	8ddd\J
=16	=16	=16	=16	=16	=16
V	.	8A\L	8c#/L	8ee/L]	8ccc#\L
vi	.	8B\	8d/	8dd/	8bb\
Vb	.	8c#\J	8e/J	8cc#/J	8aa\J
=17	=17	=17	=17	=17	=17
vib	.	4d\	8f#\L	4b/	8bb\L
.	.	.	8b\	.	8ff#\
viioD7/V/V	.	8d#\	8cc\J	8ff#\	8aa\J
=18	=18	=18	=18	=18	=18
V/V	.	8e\L	8b\L	8ee/L	8gg#\L
viio/V/V	.	8f#\	8a\	8dd#/	8ff#\
Vb/V	.	8g#\J	8b\J	8ee/J	8ee\J
=19	=19	=19	=19	=19	=19
iii7	Two appoggiaturas and one passing tone 	8a\L	8cc#\L	8ee/L	4.ff#\
vi	Deceptive cadence, expected V	8b\	8b\	8dd/	.
vi7d	.	8a\J	8b\J	8dd/J	.
=20	=20	=20	=20	=20	=20
viio7/V	.	8g#\L	8f#\L	8dd/L	8bb\L
V	.	8a\	8a\	8cc#/	8ee\
V7d	.	8g#\J	8a\J	8cc#/J	8ee\J
=21	=21	=21	=21	=21	=21
IM7	.	8f#\L	8d\L	8cc#/L	8aa\L
viio/V/V	.	8g#\	8g#\	8b/	8dd\
Ib	.	8f#\J	16a\L	8a/J	8dd\J
.	.	.	16dd\JJ	.	.
=22	=22	=22	=22	=22	=22
V7	.	8e\L	8dd\L	8g#/L	8bb\L
viioD7/iii	.	8e#\	8g#\	8b/	8dd\
iii	.	8f#\J	8a\J	8a/J	8cc#\J
=23	=23	=23	=23	=23	=23
vi	.	8B\L	8d/L	8dd/L	8ff#/L
.	.	8e\	8e/	8cc#/	8a/
V7	.	8E\J	8d/J	8b/J	8g#/J
=24	=24	=24	=24	=24	=24
Vb	.	8C#\L	8c#\L	8a/L	4.ee\
.	.	8a\	8cc#\	8cc#/	.
ii7b	.	8g\J	8dd\J	8b/J	.
=25	=25	=25	=25	=25	=25
*	*	*	*	*	*
V/vi	.	8f#\L	8ee\L	8a#/L	8ccc#\L
vi	.	8b\	8dd\	8b/	8ff#\
vi7d	.	8a\J	8dd\J	8b/J	8ff#\J
=26	=26	=26	=26	=26	=26
V7b/V	.	8g#\L	8dd\L	8e/L	8bb\L
v	.	8a\	8cc\	8a/	8ee\
iib	.	8g\J	8b\J	8ee/J	8ee\J
=27	=27	=27	=27	=27	=27
Gn/V	German augmented sixth going to dominant of the dominant	4.f\	8a\L	4.dd#/	8aa\L
.	.	.	8b\	.	8gg#\
.	.	.	[8cc\J	.	8aa\J
=28	=28	=28	=28	=28	=28
Vc	Resolution of german sixth with 64 chord	[4.e\	8cc\L]	4ee\	8aa\L
V/V	.	.	8b\	.	8gg#\
.	.	.	8g#\J	8b/	8ee\J
=29	=29	=29	=29	=29	=29
iii7d	.	8e\L]	8a\L	8cc#/L	4ff#\
vib	.	8d\	8b\	8dd/	.
.	.	8d\J	8b\J	8dd/J	16ddd\LL
.	.	.	.	.	16bb\JJ
=30	=30	=30	=30	=30	=30
V7d/V	.	4d\	4b\	4ee\	4gg#\
.	.	8r	8r	8r	16fff#\LL
.	.	.	.	.	16eee\JJ
=31	=31	=31	=31	=31	=31
.	I	4.r	4.r	4.r	8.eee\L
.	.	.	.	.	32ddd\LL
.	.	.	.	.	32ccc#\JJJ
.	ii	.	.	.	16bb\LL
.	.	.	.	.	32aa\L
.	.	.	.	.	32gg#\JJJ
=32	=32	=32	=32	=32	=32
V	.	8r	8r	8r	8aa\L
V7b	.	4c#\	[4A/	[4a/	8gg\
.	.	.	.	.	8ee#\J
=33	=33	=33	=33	=33	=33
Ib	Very strange non-harmonic tones, b natural appoggiatura and d natural passing tone	8d\L	16.A/LL]	8a/L]	48ee\LLL
.	.	.	.	.	48ff#\
.	.	.	.	.	48gg#\
.	.	.	.	.	48aa\
.	.	.	.	.	48ff#\
.	.	.	32f#/JJk	.	.
.	.	.	.	.	48dd\JJJ
Vc	.	8e\	8.e/L	8a/	8cc#/L
V/V	.	8E\J	.	8g#/J	8b/J
.	.	.	16d/Jk	.	.
=34	=34	=34	=34	=34	=34
V	.	[4.A\	8c#/L	8a/L	[4.a/
Ic	.	.	8f#/	8dd/	.
V	.	.	8e/J	8cc#/J	.
=35	=35	=35	=35	=35	=35
V	Passing tones in second violin and viola	4.A\]	8d/L	8b/L	8.a/L]
.	.	.	8c#/	8a/	.
.	.	.	.	.	16e/Jk
V7/V	Pedal Eb	.	8B/J	8g#/J	16d/LL
.	.	.	.	.	32c#/L
.	.	.	.	.	32d/JJJ
=36	=36	=36	=36	=36	=36
V	.	[4.AA/	8c#\L	8a/L	16c#/LL
.	.	.	.	.	16a/JJ
Ic	Vb	.	8dd\	8ff#/	[4a/
V	.	.	8cc#\J	8ee/J	.
=37	=37	=37	=37	=37	=37
V	Passing tones in second violin and viola	4.AA/_	8b\L	8dd/L	8.a/L]
.	.	.	8a\	8cc#/	.
.	.	.	.	.	16e/Jk
V7/V	Pedal Eb	.	8g#\J	8b/J	16d/LL
.	.	.	.	.	32c#/L
.	.	.	.	.	32d/JJJ
=38	=38	=38	=38	=38	=38
V	.	4.AA/]	4a\	4cc#/	4c#/
.	.	.	8r	8r	8r
=39:|!|:	=39:|!|:	=39:|!|:	=39:|!|:	=39:|!|:	=39:|!|:
*A:	*A:	*A:	*A:	*A:	*A:
I	Considering as Eb Major	[4.A\	8A/L	8c#/L	[4.a/
.	.	.	8B/	8d/	.
.	.	.	8c#/J	8e/J	.
=40	=40	=40	=40	=40	=40
IVc	.	4.A\_	8d/L	8f#/L	4a/]
.	.	.	8c#/	8e/	.
V7	Pedal Eb	.	8B/J	8g#/J	8dd/
=41	=41	=41	=41	=41	=41
I	.	8A/L]	[4.A/	[4.a/	8cc#/L
IV	.	8F#/	.	.	8dd/
.	.	8D/J	.	.	8ff#/J
=42	=42	=42	=42	=42	=42
Ib	.	8C#/L	8A/L]	8a/L]	8ee/L
V7b	.	8G#/	8e/	8b/	8dd/
I	.	8A/J	8e/J	8e/J	8cc#/J
=43	=43	=43	=43	=43	=43
iib	.	8D/L	8d/L	8f#/L	8b/L
Ic	.	8E/	8c#/	8e/	8a/
V7	.	8E/J	8B/J	8d/J	8g#/J
=44	=44	=44	=44	=44	=44
I	.	8AL	8A/L	8c#/	[4.aa\
i	Moving to Bb Minor!	8a\	8cc/	8r	.
.	.	8g\J	8b/J	8r	.
=45	=45	=45	=45	=45	=45
vi	.	8f#\L	8a\L	8ff#\L	8aa\L]
v	.	8e\	8g\	8gg\	8bb\
viioD7/v	.	8d#\J	8f#\J	8aa\J	8ccc\J
=46	=46	=46	=46	=46	=46
*e:	*e:	*e:	*e:	*e:	*e:
vi[i]	Established the tonality with the fully diminished seventh going to Bb Minor	8e\L	8g\L	8gg\L	8bb\L
ii	.	8f#\	8a\	8ff#\	8aa\
ib	.	8g\J	8b\J	[8ee\J	8gg\J
=47	=47	=47	=47	=47	=47
iio7b	.	8a\L	8cc\L	8ee\L]	4ff#\
V	.	8b\	8b\	8dd#\	.
V7b	.	8d#\J	[8b\J	[8ff#\J	8aa\
=48	=48	=48	=48	=48	=48
VI	Suspensions in second violin and viola	4.e\	8b\L]	8ff#\L]	4gg\
.	.	.	8cc\	8ee\	.
.	.	.	[8cc\J	[8gg\J	16bb\LL
.	.	.	.	.	16aa\JJ
=49	=49	=49	=49	=49	=49
Vb/III	Suspensions here as well	4f#\	8cc\L]	8gg\L]	4aa\
.	.	.	8dd\	8ff#\	.
V7b/III	Moving to Db  Major	8F#/	8dd\J	8aa\J	8ccc\
=50	=50	=50	=50	=50	=50
*G:	*G:	*G:	*G:	*G:	*G:
I[III]	.	8G\L	8b\L	8dd/L	8bb\L
ii	.	8A\	8cc\	8cc/	8aa\
Ib	.	8B\J	8dd\J	8b/J	8gg\J
=51	=51	=51	=51	=51	=51
iib	.	8c\L	8ee\L	8ee/L	8aa\L
Ic	.	8d\	8dd\	8b/	8gg\
V7	.	8D\J	8cc\J	8a/J	8ff#\J
=52	=52	=52	=52	=52	=52
I	.	8G\L	8b\L	8b/L	[4.gg\
ii7	.	8A\	8a\	8cc/	.
Ib	.	8B\J	8g\J	8dd/J	.
=53	=53	=53	=53	=53	=53
IV	.	8c\L	4g\	8ee\	4gg\]
Ib	.	8B\	.	4dd/	.
Gn/V	German augmented sixth going to Eb (Ab as the tonic)	8B-\J	16ff\LL	.	8gg#\
.	.	.	16dd\JJ	.	.
=54	=54	=54	=54	=54	=54
V/V	Resolution of the german sixth	8A\L	8cc#\L	8cc#/L	[4.aa\
.	.	8B\	8b\	8dd/	.
.	.	8c#\J	8a\J	8ee/J	.
=55	=55	=55	=55	=55	=55
V	.	8d\L	4a\	8ff#\	4aa\]
Vb/V	.	8c#\	.	4ee\	.
Gn/vi	German augmented sixth going to F (Bb minor as the tonic)	8c\J	16gg\LL	.	8aa#\
.	.	.	16ff#\JJ	.	.
=56	=56	=56	=56	=56	=56
V/vi	Resolution of the german sixth, leading to Bb	8B\L	8dd#\L	8dd#\L	[4.bb\
.	.	8c#\	8cc#\	8ee\	.
.	.	8d#\J	8b\J	8ff#\J	.
=57	=57	=57	=57	=57	=57
*e:	*e:	*e:	*e:	*e:	*e:
i[vi]	.	8e\L	8g\L	8gg\L	8bb\L]
.	.	8f#\	8a\	8ff#\	8aa\
.	.	8g\J	8b\J	8ee\J	8gg\J
=58	=58	=58	=58	=58	=58
iio7b	.	8a\L	8cc\	8ee/L	4ff#\
V	.	8b\	[4b\	8dd#/	.
iio7/iv	Leading to Eb Minor	8a\J	.	8dd/J	8ff\
=59	=59	=59	=59	=59	=59
V7b/iv	.	8g#\L	8b\]	8dd/L	4ee\
iv	.	8a\	[4a\	8cc#/	.
iio7d/III	.	8g\J	.	[8cc/J	8ee-\
=60	=60	=60	=60	=60	=60
V7b/III	.	8f#\L	8a\L]	8cc/L]	4.dd/
III	.	8g\	8g\	8b/	.
Vb/III	.	8f#\J	[8dd\J	8a/J	.
=61	=61	=61	=61	=61	=61
III	.	8e\L	8dd\L]	8g/L	4gg\
V/V/III	.	8A\	8cc#\	8ee/	.
V/III	.	8d\J	[8dd\J	8ff#/J	8ff#\
=62	=62	=62	=62	=62	=62
III	Appoggiatura in the second violin	4.G\	8dd\L]	8ff#\L	[4.bb\
ib	.	.	8ee\	8ee\	.
III	.	.	[8gg\J	8dd\J	.
=63	=63	=63	=63	=63	=63
iv	Suspension in the first violin	8A\L	8gg\L]	8cc#/L	8bb\L]
v	Passing tone in the first violin	8B\	8ff#\	8dd/	8aa\
VI	.	8c#\J	8ee\J	[8ee/J	8gg\J
=64	=64	=64	=64	=64	=64
V/III	Suspension in the second violin	8d\L	8a\L	8ee/L]	4ff#\
v	.	8B\	8dd\	8dd/	.
V7/IV	.	8e\J	8b\J	8dd/J	8gg#\
=65	=65	=65	=65	=65	=65
IV	.	[4.A\	8a\L	8cc#/L	[8aa\L
.	.	.	8cc#\	8ee/	24aa\L]
.	.	.	.	.	24bb\
.	.	.	.	.	24ccc#\JJ
viio/IV	Pedal Eb	.	8b\J	8dd/J	24ddd\LL
.	.	.	.	.	24bb\
.	.	.	.	.	24gg#\JJ
=66	=66	=66	=66	=66	=66
IV	.	4.A\_	8a\L	8cc#/L	[8aa\L
.	.	.	8cc#\	8ee/	24aa\L]
.	.	.	.	.	24bb\
.	.	.	.	.	24ccc#\JJ
viio/IV	.	.	8b\J	8dd/J	24ddd\LL
.	.	.	.	.	24bb\
.	.	.	.	.	24gg#\JJ
=67	=67	=67	=67	=67	=67
IV	.	8A/L]	8a/L	8cc#/L	[8aa\L
.	.	8AA/J	8A/J	8c#/J	24aa\L]
.	.	.	.	.	24gg\
.	.	.	.	.	24aa\JJ
i	.	8r	8r	8r	24bb\LL
.	.	.	.	.	24gg\
.	.	.	.	.	24ee\JJ
=68	=68	=68	=68	=68	=68
V/III	.	[4.D/	8d/L	8f#/L	[4.dd/
.	.	.	8e/	8g/	.
.	.	.	8f#/J	8a/J	.
=69	=69	=69	=69	=69	=69
III	.	4.D/_	8g\L	8b/L	4dd/]
.	.	.	8f#\	8a/	.
vi	.	.	8e\J	8cc#/J	8gg\
=70	=70	=70	=70	=70	=70
IIIc	.	8D/L]	[4.d/	[4.dd/	8ff#\L
.	.	8BB/	.	.	8gg\
III	.	8GG/J	.	.	8bb\J
=71	=71	=71	=71	=71	=71
Vb/III	.	8FF#/L	8d/L]	8dd/L]	8aa\L
.	.	8C#/	8A/	8ee/	8gg\
.	.	8D/J	8A/J	8a/J	8ff#\J
=72	=72	=72	=72	=72	=72
i	.	8G\L	8g\L	8b/L	8ee/L
Vc/III	.	8A\	8f#\	8a/	8dd/
iv7	.	[8A\J	8e\J	8g/J	8cc/J
=73	=73	=73	=73	=73	=73
V7d	.	8A\L]	8d#/L	8f#/L	4b/
ib	.	8G\	8e/	8g/	.
?	.	[8G\J	8d/J	8f/J	8b-/
=74	=74	=74	=74	=74	=74
V7d/V/III	.	8G/L]	8c#/L	8e/L	4a/
V/III	.	8F#/	8d/	8f#/	.
.	.	8D/J	8f#/J	8a/J	8ff#\
=75	=75	=75	=75	=75	=75
III	Appoggiatura in the first violin	4GG/	4g\	4.b/	8ff#\L
.	.	.	.	.	8ee\
viioD7/IV	.	8GG#/	8f\	.	8dd\J
=76	=76	=76	=76	=76	=76
V/VII	.	8AA/L	8e/L	8a/L	8cc#/L
viiob/V/VII	.	8BB/	8d/	8g#/	8b/
Vb/V/VII	.	8C#/J	8e/J	[8a/J	8a/J
=77	=77	=77	=77	=77	=77
*D:	*D:	*D:	*D:	*D:	*D:
vim7b	I do not know where to put the modulation to Ab Major, decided to put it in a deceptive cadence starting a sequential progression, but this is very difficult	8D/L	8f#/L	8a/L]	4.b/
iib	.	8E/	8e/	8g/	.
iim7d	.	8D/J	8e/J	[8g/J	.
=78	=78	=78	=78	=78	=78
V7b	.	8C#/L	8A/L	8g/L]	8ee/L
I	.	8D/	8d/	8f#/	8a/
IM7d	G natural in the bass, making it a Major 7th chord, this is only acceptable during a sequential progression	8C#/J	8d/J	[8f#/J	8a/J
=79	=79	=79	=79	=79	=79
vim7	.	8BB/L	8A/L	8f#/L]	8dd/L
viiom7	VII degree in root position, implies a sequential progression as well	8C#/	8B/	8e/	8g/
iim7c	.	8BB/J	16e/L	8d/J	8g/J
.	.	.	16f#/JJ	.	.
=80	=80	=80	=80	=80	=80
V7	.	8AA/L	8g/L	8c#/L	8ee/L
viioD7/vi	.	8AA#/	8c#/	8e/	8g/
vi	.	8BB/J	8d/J	8d/J	8f#/J
=81	=81	=81	=81	=81	=81
IV	.	8GG/L	8G/L	8g/L	8b/L
Ic	.	8AA/	8A/	8f#/	8d/
V7	.	8AA/J	8G/J	8e/J	8c#/J
=82	=82	=82	=82	=82	=82
Ib	.	8FF#/L	8F#/L	8d/L	4.a/
I	.	8d/	8f#/	8f#/	.
vb	.	8c/J	8g/J	8e/J	.
=83	=83	=83	=83	=83	=83
V7/ii	.	8B\L	8a\L	8d#/L	8ff#/L
ii	.	8e\	8g\	8e/	8b/
iim7d	.	8d\J	8g\J	[8e/J	8b/J
=84	=84	=84	=84	=84	=84
viio	VII degree in root position	8c#\L	8g\L	8e/L]	8ee/L
i	.	8d\	8f\	8d/	8a/
Vc	.	8c#\J	8e\J	8a/J	8a/J
=85	=85	=85	=85	=85	=85
Gn	Considering this german sixth as the leading harmony to finally establish Ab back again	4.B-\	8d/L	4.g#/	8dd/L
.	.	.	8e/	.	8cc#/
.	.	.	[8f/J	.	[8dd/J
=86	=86	=86	=86	=86	=86
V7	Suspension in first violin and viola	[4.A\	8f/L]	4a/	8dd/L]
.	.	.	8e/	.	8cc#/
.	.	.	8c#/J	8e/	8a/J
=87	=87	=87	=87	=87	=87
*	*	*	*	*	*
vi7	.	8A\L]	8d/L	8f#/L	4b/
iib	.	8G\	8e/	8g/	.
.	.	8G\J	8e/J	8g/J	16gg\LL
.	.	.	.	.	16ee\JJ
=88	=88	=88	=88	=88	=88
V7d	.	4G\	4e/	4a/	4cc#/
.	.	8r	8r	8r	16bb\LL
.	.	.	.	.	16aa\JJ
=89	=89	=89	=89	=89	=89
.	.	4.r	4.r	4.r	8.aa\L
.	.	.	.	.	32gg\LL
.	.	.	.	.	32ff#\JJJ
.	.	.	.	.	16ee/LL
.	.	.	.	.	32dd/L
.	.	.	.	.	32cc#/JJJ
=90	=90	=90	=90	=90	=90
I	.	8r	8r	8r	8dd/L
V7b/IV	.	4F#/	[4d/	[4d/	8cc/
.	.	.	.	.	[8a#/J
=91	=91	=91	=91	=91	=91
?	.	8G/L	16d/LL]	8d/L]	48a#/LLL]
.	.	.	.	.	48b/
.	.	.	.	.	48cc#/JJJ
IV	.	.	16B/JJ	.	48dd/LLL
.	.	.	.	.	48b/
.	.	.	.	.	48g/JJJ
Ic	.	8A/	8.A/L	8d/	8f#/L
V7	.	8AA/J	.	8c#/J	8e/J
.	.	.	16G/Jk	.	.
=92	=92	=92	=92	=92	=92
I	.	[4.D/	8F#/L	8d/L	[4.d/
IVc	.	.	8g/	8b/	.
I	.	.	8f#/J	8a/J	.
=93	=93	=93	=93	=93	=93
.	.	4.D/_	8e/L	8g/L	8.d/L]
I	.	.	8d/	8f#/	.
.	.	.	.	.	16f#/Jk
V7[viio]	Pedal Ab	.	8c#/J	8e/J	16g/LL
.	.	.	.	.	32f#/L
.	.	.	.	.	32g/JJJ
=94	=94	=94	=94	=94	=94
I	.	4.D/_	8d/L	8f#/L	8f#/L
IVc	.	.	8B/	8g/	8d/
I	.	.	8A/J	8f#/J	8d/J
=95	=95	=95	=95	=95	=95
.	.	4.D/_	16G/LL	8e/L	8.d/L
.	.	.	16g/JJ	.	.
I	.	.	8f#/L	8d/	.
.	.	.	.	.	16f#/Jk
V7[viio]	Pedal Ab	.	8e/J	8c#/J	16g/LL
.	.	.	.	.	32f#/L
.	.	.	.	.	32g/JJJ
=96	=96	=96	=96	=96	=96
I	.	4D/]	4d/	4d/	4f#/
.	.	8r	8r	8r	8r
==:|!	==:|!	==:|!	==:|!	==:|!	==:|!
*-	*-	*-	*-	*-	*-
!!!filter: extract -s5,1,6,3,7,8
